images/user.svg

<svg width="20" height="24" viewBox="0 0 20 24" fill="none" xmlns="http://www.w3.org/2000/svg">
<g clip-path="url(#clip0_323757_105)">
<path d="M9 12C10.6575 12 12 10.6575 12 9C12 7.3425 10.6575 6 9 6C7.3425 6 6 7.3425 6 9C6 10.6575 7.3425 12 9 12ZM9 13.5C6.9975 13.5 3 14.505 3 16.5V17.25C3 17.6625 3.3375 18 3.75 18H14.25C14.6625 18 15 17.6625 15 17.25V16.5C15 14.505 11.0025 13.5 9 13.5Z" fill="#4D5AE5"/>
</g>
<line x1="18.625" y1="3.625" x2="18.625" y2="20.375" stroke="black" stroke-width="1.25" stroke-linecap="round"/>
<defs>
<clipPath id="clip0_323757_105">
<rect width="18" height="18" fill="white" transform="translate(0 3)"/>
</clipPath>
</defs>
</svg>

<svg xmlns="http://www.w3.org/2000/svg" width="18" height="24" fill="none"><g clip-path="url(#a)"><path fill="#2E2F42" d="M9 12a3 3 0 1 0 0-6 3 3 0 1 0 0 6Zm0 1.5c-2.003 0-6 1.005-6 3v.75c0 .413.337.75.75.75h10.5c.412 0 .75-.337.75-.75v-.75c0-1.995-3.998-3-6-3Z"/></g><defs><clipPath id="a"><path fill="#fff" d="M0 3h18v18H0z"/></clipPath></defs></svg>
